X: 21
T: The Fairhaired Boy
B: begged borrowed and stolen
M:6/8
L:1/8
R: jig
Q: 3/8=100
K:Adorian
V:1 
|:"Am"EAA EAA | "G"~g3 edB | "Am"BAB edB |"Em"~B3 GED | 
"Am"EAA EAA | "G"g2g edB | "Am"BAB "Em"edB |1 "G"BAG "Am"A2A :|2"G"BAG"Am"ABd ||
|:"Am"eaa bag | eaf ged | "G"BAB edB |~B3 GED |
[1 "Am"e2a bag | eaf ged| "Am"BAB "Em"edB | "G"BAG "Am"AB/c/d :|
[2 "Am"EAA EAA | gfg edB| "Am"BAB "Em"edB |"G"BAG "Am"A3 ||
% abcbook-tune_id 62828a3ad4341963a01f9115


% abcbook-boost 0
% abcbook-tablature 
% abcbook-transpose 
% abcbook-lastupdated 1652725431055
% abcbook-soundfonts 
% abcbook-repeats 3
% abc-sessionorg_id 3119
% abc-sessionorg_setting 0
% abc-sessionorg_setting_id 3119
% abc-boost 1

